X:1
T:[ID 2-15]
T:[ID 2-15]
T:Bezeichnung standardisiert: Anglaise Angeloise
T:Urheber unbekannt Datum in der hier transkribierten schriftlichen Quelle: 1767
C:Urheber unbekannt
C:Datum in der hier transkribierten schriftlichen Quelle: 1767
L:1/8
M:2/4
K:D
V:1 treble 
V:1
 d2 c/d/e/c/ | dc/B/ A2 |"^Trio" a2 a2 | a3 b | abag | fe/f/ d2 | a2 a2 | a3 b | ab/a/ gf | e4 :: %10
 e2 e2 | e3 g | fa b/a/g/f/ | f2 e2 | a2 a2 | a3 b | agfe | d4 :| %18

